X: 12998
T: Fifth Year, The
R: reel
M: 4/4
K: Dminor
D2dc d2AB|c3d cBAG|1 D2dc d2AB|
cBAB cBAG:|2 DEFG Addc|Add^c d4||
DEFG Ad2^c|Ac2B G3A|1 DEFG Adde|
fede fed2:|2 ^FAd^c ^FAcB|^FAd^c d4||

